public/svg/icon/miota.svg

<svg xmlns="http://www.w3.org/2000/svg" xmlns:xlink="http://www.w3.org/1999/xlink" width="32" height="32" viewBox="0 0 32 32"><defs><linearGradient id="miota-c" x1="50%" x2="50%" y1="0%" y2="100%"><stop offset="0%" stop-color="#FFF" stop-opacity=".5"/><stop offset="100%" stop-opacity=".5"/></linearGradient><circle id="miota-b" cx="16" cy="15" r="15"/><filter id="miota-a" width="111.7%" height="111.7%" x="-5.8%" y="-4.2%" filterUnits="objectBoundingBox"><feOffset dy=".5" in="SourceAlpha" result="shadowOffsetOuter1"/><feGaussianBlur in="shadowOffsetOuter1" result="shadowBlurOuter1" stdDeviation=".5"/><feComposite in="shadowBlurOuter1" in2="SourceAlpha" operator="out" result="shadowBlurOuter1"/><feColorMatrix in="shadowBlurOuter1" values="0 0 0 0 0 0 0 0 0 0 0 0 0 0 0 0 0 0 0.199473505 0"/></filter><path id="miota-e" d="M22.256625,5.77011184 C22.256625,6.47145201 21.6865593,7.03960275 20.9834782,7.03960275 C20.2793069,7.03960275 19.7086182,6.47145201 19.7086182,5.77011184 C19.7086182,5.0684612 20.2793069,4.5 20.9834782,4.5 C21.6865593,4.5 22.256625,5.0684612 22.256625,5.77011184 Z M21.3387569,10.1937707 C20.7427141,10.1937707 20.259526,9.71220572 20.259526,9.11816515 C20.259526,8.52412459 20.7427141,8.04255956 21.3387569,8.04255956 C21.9347997,8.04255956 22.4179878,8.52412459 22.4179878,9.11816515 C22.4179878,9.71220572 21.9347997,10.1937707 21.3387569,10.1937707 Z M21.004038,12.8466932 C20.5002102,12.8466932 20.0917771,12.4396321 20.0917771,11.9374968 C20.0917771,11.4353615 20.5002102,11.0283004 21.004038,11.0283004 C21.5078658,11.0283004 21.9162989,11.4353615 21.9162989,11.9374968 C21.9162989,12.4396321 21.5078658,12.8466932 21.004038,12.8466932 Z M20.9503023,14.2192584 C20.9503023,14.6480104 20.6009424,14.996352 20.170901,14.996352 C19.7402366,14.996352 19.3908767,14.6480104 19.3908767,14.2192584 C19.3908767,13.7906617 19.7402366,13.4424753 20.170901,13.4424753 C20.6009424,13.4424753 20.9503023,13.7906617 20.9503023,14.2192584 Z M19.7160945,15.9434252 C19.7160945,16.3121022 19.4167321,16.610459 19.0474354,16.610459 C18.6772042,16.610459 18.3772189,16.3121022 18.3772189,15.9434252 C18.3772189,15.5749033 18.6772042,15.2756152 19.0474354,15.2756152 C19.4167321,15.2756152 19.7160945,15.5749033 19.7160945,15.9434252 Z M18.3661602,17.1660359 C18.3661602,17.4831758 18.1088519,17.7394645 17.7909546,17.7394645 C17.4735245,17.7394645 17.2166835,17.4831758 17.2166835,17.1660359 C17.2166835,16.8496722 17.4733688,16.5933834 17.7909546,16.5933834 C18.1086961,16.5932282 18.3661602,16.8496722 18.3661602,17.1660359 Z M25.2395015,9.75741235 C25.1033711,10.3379817 24.5205334,10.6985866 23.9376958,10.5630687 C23.3554811,10.4270851 22.9936607,9.84651577 23.1304142,9.26594644 C23.2670119,8.6853771 23.8493823,8.32523784 24.431597,8.46106623 C25.0142789,8.59720508 25.375632,9.17746395 25.2395015,9.75741235 Z M24.7217697,12.5602893 C24.6060433,13.0517552 24.1129209,13.3570974 23.6188639,13.241294 C23.1262088,13.1267325 22.8201489,12.6344904 22.9358754,12.143335 C23.0509788,11.6520243 23.54488,11.3463716 24.0370679,11.4618646 C24.5308133,11.5773575 24.8371847,12.0688234 24.7217697,12.5602893 Z M23.758421,14.7971888 C23.6610737,15.2124356 23.2438043,15.4704319 22.8265349,15.3729459 C22.4100443,15.2756152 22.1510226,14.8605237 22.2485257,14.4445007 C22.3455615,14.0289435 22.7636096,13.7712576 23.1804118,13.8682779 C23.5972139,13.9652982 23.8567028,14.3811659 23.758421,14.7971888 Z M22.5159581,16.4993125 C22.4318501,16.8549501 22.0762599,17.074604 21.7195795,16.9917098 C21.3633663,16.9080396 21.1418817,16.5533334 21.2256783,16.1983168 C21.3082288,15.8433002 21.6649092,15.6222492 22.0214339,15.7059195 C22.3776471,15.7889689 22.5989759,16.1444512 22.5159581,16.4993125 Z M21.1590149,17.6876169 C21.0872115,17.9921829 20.7816189,18.1823427 20.475559,18.1103148 C20.1696549,18.0392184 19.9797888,17.7338762 20.0511249,17.4283787 C20.122461,17.1241231 20.4289881,16.9341186 20.735048,17.0061465 C21.0414193,17.0773982 21.2306625,17.3821194 21.1590149,17.6876169 Z M19.8042522,18.4390971 C19.7425729,18.7011295 19.4793459,18.8631922 19.2168976,18.8023411 C18.953982,18.7405585 18.7907501,18.4788366 18.8521178,18.216649 C18.9137971,17.9549272 19.1767126,17.7922436 19.4390052,17.8530947 C19.7022322,17.9148772 19.8654641,18.1767543 19.8042522,18.4390971 Z M26.9076446,13.5826502 C26.6858486,14.0398097 26.1340063,14.2307456 25.6759289,14.0095394 C25.2172285,13.7884884 25.025649,13.2386551 25.2479123,12.7813403 C25.4692411,12.3251122 26.0201489,12.1337106 26.4791608,12.3544511 C26.9373939,12.5759678 27.1297522,13.1258011 26.9076446,13.5826502 Z M25.946788,15.7976619 C25.7572333,16.1869849 25.2893433,16.349358 24.8988639,16.1609058 C24.5082287,15.9732298 24.3457756,15.5053592 24.5336169,15.1165019 C24.7231715,14.7277999 25.1919961,14.5657372 25.5820082,14.7527923 C25.9727992,14.941555 26.1360311,15.4092703 25.946788,15.7976619 Z M24.7387471,17.4788293 C24.5758267,17.8149075 24.1700832,17.9547719 23.8328722,17.7923988 C23.4962842,17.6301809 23.3553254,17.2265765 23.5185573,16.8900326 C23.6814777,16.5544201 24.0872212,16.413469 24.4238092,16.5766183 C24.7613317,16.7391467 24.901979,17.1430615 24.7387471,17.4788293 Z M23.3934855,18.6658917 C23.2515921,18.9575735 22.9003631,19.07881 22.6075425,18.9384799 C22.3148776,18.7975288 22.1924536,18.4457721 22.3335683,18.1540904 C22.4757732,17.8627191 22.827781,17.7408616 23.1196671,17.8815022 C23.4123319,18.0227637 23.5350674,18.3738995 23.3934855,18.6658917 Z M22.0382555,19.3981232 C21.9177007,19.6472712 21.617248,19.751277 21.3671044,19.6306614 C21.1171166,19.5106667 21.0124488,19.2102919 21.1334709,18.9614543 C21.2544931,18.7127719 21.55479,18.6083005 21.8049336,18.7289161 C22.0553887,18.8492213 22.1592777,19.1483542 22.0382555,19.3981232 Z M20.7654203,19.7668002 C20.6627773,19.9786925 20.4070266,20.0674855 20.1947316,19.965032 C19.9830597,19.8628891 19.8936559,19.6083079 19.9962989,19.3968813 C20.0989419,19.1854547 20.3546927,19.0966618 20.5668319,19.1989599 C20.7789711,19.3014134 20.8680633,19.5561498 20.7654203,19.7668002 Z M21.8013512,24.6229367 C21.1915678,24.2739742 20.9819207,23.4967253 21.3333054,22.8893008 C21.6851575,22.2820315 22.463157,22.0730886 23.0734076,22.423293 C23.6827238,22.7734974 23.8933054,23.5498148 23.5419206,24.1570841 C23.1900686,24.7648192 22.4111346,24.973762 21.8013512,24.6229367 Z M18.8108426,23.0907925 C18.2948241,22.7947642 18.1160166,22.1376653 18.4146002,21.6226041 C18.711782,21.108319 19.3709399,20.931354 19.8883602,21.2275375 C20.4040672,21.523721 20.5813171,22.1819066 20.2836681,22.6961916 C19.9864863,23.2109424 19.3271726,23.3879074 18.8108426,23.0907925 Z M16.6093922,21.2508224 C16.1724975,20.9993458 16.0223491,20.4442346 16.2740502,20.0083419 C16.5259071,19.5735358 17.0836681,19.4238918 17.5200955,19.6745921 C17.9563671,19.925603 18.1072943,20.4810247 17.8551259,20.9158308 C17.6040478,21.3520339 17.0464425,21.5009018 16.6093922,21.2508224 Z M15.1075961,19.2770419 C14.7350286,19.0623554 14.6066859,18.5876546 14.821473,18.2154072 C15.0368831,17.8440912 15.5127166,17.7160244 15.8865302,17.9305557 C16.2590977,18.1449317 16.3872846,18.6196325 16.1718745,18.9917246 C15.957399,19.3633511 15.4806309,19.4911074 15.1075961,19.2770419 Z M14.2253961,17.3512282 C13.9048509,17.166812 13.7947317,16.7591717 13.9793021,16.4395481 C14.1641841,16.1197692 14.5739772,16.0109513 14.8942109,16.1949017 C15.2136657,16.3786969 15.3240965,16.786803 15.1398375,17.10534 C14.9552671,17.4255845 14.5453182,17.5350234 14.2253961,17.3512282 Z M13.8361627,15.573972 C13.561254,15.4162558 13.4663988,15.0662066 13.6252695,14.7914452 C13.7838288,14.5173047 14.1350578,14.4235443 14.410278,14.5812605 C14.6848753,14.7392871 14.7795747,15.0896467 14.6211712,15.3640977 C14.462612,15.6376173 14.1109157,15.7318433 13.8361627,15.573972 Z M17.5856686,25.5 C16.9874753,25.5 16.5025438,25.0166975 16.5025438,24.4205136 C16.5025438,23.8243297 16.9874753,23.3410272 17.5856686,23.3410272 C18.1838619,23.3410272 18.6687934,23.8243297 18.6687934,24.4205136 C18.6687934,25.0166975 18.1838619,25.5 17.5856686,25.5 Z M14.6677421,23.362294 C14.2979782,23.0165914 14.2791318,22.438661 14.6252209,22.0701392 C14.9717772,21.7014621 15.551967,21.6831447 15.9217309,22.0276055 C16.2911834,22.3734634 16.3103413,22.9512385 15.9642522,23.3199156 C15.6180074,23.6884374 15.0381291,23.7067548 14.6677421,23.362294 Z M13.2033275,21.4141269 C12.8910374,21.121669 12.8749945,20.6325315 13.1676594,20.32098 C13.4609473,20.0092733 13.9514219,19.9932843 14.2640235,20.2854318 C14.5769366,20.5771136 14.5928237,21.0664062 14.2996915,21.3779577 C14.0073382,21.6895092 13.5163963,21.705343 13.2033275,21.4141269 Z M12.3444908,19.490176 C12.0770583,19.2414936 12.0635076,18.8232974 12.3136512,18.5569186 C12.5645735,18.2910054 12.9827775,18.276724 13.2500542,18.5260273 C13.5174866,18.7757963 13.5310374,19.1935268 13.2810495,19.4600609 C13.030906,19.7259741 12.6117675,19.7401002 12.3444908,19.490176 Z M11.9879661,17.7262698 C11.7586938,17.5122042 11.7473236,17.1533068 11.9616434,16.9246494 C12.1765862,16.6955263 12.5366933,16.6837287 12.7665886,16.897639 C12.996484,17.112015 13.0075426,17.4709124 12.7929113,17.6998802 C12.5778128,17.9286929 12.2181729,17.9404905 11.9879661,17.7262698 Z M12.0117967,16.1799994 C11.81461,15.9965147 11.8043302,15.6880678 11.9890564,15.4916988 C12.1736268,15.2951745 12.4829576,15.2850844 12.6801442,15.4695005 C12.8768636,15.6532957 12.887455,15.9612769 12.7024173,16.1578012 C12.5180026,16.3541702 12.2083603,16.364726 12.0117967,16.1799994 Z M12.6869975,24.7398267 C12.4016531,24.319923 12.5099033,23.7478914 12.9312223,23.4628847 C13.3526971,23.176636 13.9263452,23.2857644 14.2126241,23.705513 C14.4990588,24.1251063 14.3901856,24.6969826 13.9688665,24.9819893 C13.5473917,25.2680827 12.9745224,25.1592648 12.6869975,24.7398267 Z M11.2408062,22.8037677 C10.9967371,22.4464226 11.0900347,21.9599242 11.4484285,21.7171406 C11.806355,21.4745123 12.2948047,21.5667204 12.5385623,21.9232893 C12.7824757,22.2806344 12.6893338,22.7674433 12.3312516,23.0100716 C11.9723905,23.2531656 11.4850311,23.1609576 11.2408062,22.8037677 Z M10.3827483,20.920643 C10.1720109,20.6123513 10.2525366,20.1924476 10.5617115,19.9825733 C10.8715095,19.7723886 11.2934516,19.8521781 11.503566,20.1612459 C11.7147707,20.4700032 11.634245,20.8900622 11.3249143,21.1002469 C11.0149605,21.3090345 10.5928627,21.2301764 10.3827483,20.920643 Z M10.022797,19.1672925 C9.8404071,18.8992061 9.90956262,18.5348756 10.1780854,18.3523222 C10.4472311,18.1699241 10.8126339,18.2391578 10.9958026,18.5072442 C11.179127,18.7750201 11.1095042,19.1405925 10.8398911,19.3222145 C10.5713684,19.5047679 10.2059656,19.4346028 10.022797,19.1672925 Z M10.0623589,17.6314227 C9.90613599,17.4024549 9.96501163,17.0910586 10.1953742,16.93505 C10.4248023,16.7795071 10.7374039,16.8392716 10.8936269,17.067308 C11.050317,17.2968968 10.9909741,17.6093797 10.7606115,17.7636808 C10.5308719,17.9198446 10.2185818,17.8605458 10.0623589,17.6314227 Z M10.3771411,16.3476504 C10.2447488,16.1526785 10.2955251,15.8886281 10.4894409,15.7555939 C10.6847585,15.6239568 10.9506334,15.6744073 11.0831815,15.8689136 C11.2158853,16.0627989 11.1654205,16.3282464 10.9705701,16.4598835 C10.774318,16.5922968 10.5093776,16.5420015 10.3771411,16.3476504 Z M5.63749649,14.8060371 C6.24696837,14.4556774 7.02574665,14.6641546 7.37744292,15.2715792 C7.7294507,15.8788485 7.51933632,16.6554764 6.91048746,17.0061465 C6.30054831,17.3560404 5.5222373,17.147408 5.1710083,16.5410701 C4.81853325,15.9328694 5.02880338,15.1560862 5.63749649,14.8060371 Z M8.46726524,12.9954059 C8.98281646,12.6979805 9.64353196,12.8743246 9.94102526,13.3890753 C10.2382071,13.9036709 10.0615801,14.560925 9.54525014,14.8577295 C9.02923165,15.153913 8.36913918,14.9774137 8.07164588,14.46406 C7.77384106,13.9489988 7.95155827,13.2915894 8.46726524,12.9954059 Z M11.1680683,12.0186833 C11.6043399,11.7681382 12.1630354,11.9173165 12.4144251,12.3518122 C12.6661262,12.7875496 12.5161335,13.3439027 12.0803292,13.5947583 C11.6429673,13.8451482 11.0861408,13.6956594 10.8338167,13.2606981 C10.5821155,12.8262025 10.7321082,12.2698494 11.1680683,12.0186833 Z M13.6346149,11.7128754 C14.0074939,11.4983442 14.4837947,11.6259453 14.6987375,11.997727 C14.9144591,12.3698191 14.7859607,12.8442095 14.4138604,13.0587407 C14.0405141,13.2734272 13.5637461,13.1461366 13.348336,12.7734235 C13.1333932,12.4022627 13.2614243,11.9275619 13.6346149,11.7128754 Z M15.7486864,11.9168509 C16.0698546,11.7329004 16.4782459,11.8423393 16.6631279,12.1618076 C16.8481656,12.4806551 16.7378906,12.8892269 16.4179685,13.0727116 C16.0978906,13.2574382 15.6880975,13.1479993 15.5039943,12.828531 C15.318645,12.5092179 15.4286085,12.101267 15.7486864,11.9168509 Z M17.486608,12.4714964 C17.761984,12.3139354 18.1135245,12.4078511 18.271928,12.6816811 C18.4309546,12.9559768 18.3364109,13.3063364 18.0611906,13.4643631 C17.7861261,13.621924 17.4348971,13.5289398 17.2760264,13.2544888 C17.1176229,12.9801931 17.2121665,12.6299887 17.486608,12.4714964 Z M7.61388,10.2387882 C8.18628204,10.0669458 8.79076974,10.3899846 8.96334701,10.960619 C9.13639154,11.5312535 8.81210826,12.1337106 8.23970623,12.3055529 C7.66777146,12.4775504 7.063128,12.154667 6.89055074,11.584343 C6.71719469,11.013398 7.04116646,10.4112514 7.61388,10.2387882 Z M10.3081413,9.28612665 C10.7931645,9.14020816 11.304043,9.41403819 11.4510763,9.89681108 C11.5974867,10.3803601 11.3225779,10.8904539 10.8381778,11.0368381 C10.352999,11.1821357 9.84180891,10.9086161 9.69461981,10.4255328 C9.54883252,9.94260465 9.82280672,9.43188992 10.3081413,9.28612665 Z M12.7337242,9.00003326 C13.14305,8.87584731 13.5762065,9.10714365 13.6998765,9.5160259 C13.8237022,9.92521862 13.5919378,10.3559886 13.1812102,10.4797089 C12.7718843,10.6031187 12.3384163,10.3718224 12.2149021,9.96371626 C12.0906091,9.55467878 12.323308,9.12359829 12.7337242,9.00003326 Z M14.834868,9.22310228 C15.1843837,9.11769946 15.5536803,9.31468942 15.6602172,9.66458335 C15.7656638,10.0135459 15.5675426,10.3820677 15.2172481,10.487781 C14.8667979,10.5927181 14.4964109,10.3951072 14.3914316,10.0459895 C14.2856735,9.696406 14.4837947,9.32788418 14.834868,9.22310228 Z M16.5447536,9.79994604 C16.8452062,9.70960076 17.1624805,9.87849365 17.2540648,10.178558 C17.3447146,10.4789327 17.1740064,10.7952965 16.8732422,10.8859522 C16.5720108,10.9766079 16.255048,10.8064732 16.163931,10.5064089 C16.0728139,10.207276 16.2432106,9.89044655 16.5447536,9.79994604 Z M17.8744396,10.5952018 C18.1337728,10.5168095 18.4052549,10.6630384 18.4837557,10.9201033 C18.5616335,11.1784101 18.4155347,11.4496012 18.1569804,11.5273727 C17.898426,11.6049889 17.6264766,11.4592256 17.5481315,11.201695 C17.4704094,10.9436987 17.6165082,10.6720419 17.8744396,10.5952018 Z M10.1047245,6.88825112 C10.6126436,6.85146103 11.054834,7.23131482 11.0915923,7.73814874 C11.1280391,8.2442065 10.7458147,8.68444571 10.2382071,8.7217015 C9.73044361,8.75849158 9.2882533,8.37755117 9.25180648,7.87164864 C9.21551541,7.36465949 9.59711677,6.92442028 10.1047245,6.88825112 Z M12.5108378,6.61038505 C12.9427483,6.57933856 13.3192097,6.90315344 13.3502051,7.333613 C13.3813562,7.76500395 13.0569172,8.13911414 12.6236049,8.17031586 C12.1918502,8.20213851 11.8160118,7.87754748 11.7850165,7.44770884 C11.7532423,7.01631789 12.0783044,6.64205247 12.5108378,6.61038505 Z M14.5750675,6.81389478 C14.9482581,6.78688434 15.2733201,7.06676843 15.3001101,7.43917106 C15.3270558,7.81126322 15.0465399,8.13445717 14.6733494,8.16193331 C14.2995358,8.18816759 13.9750967,7.90859396 13.947528,7.53665703 C13.9205823,7.16378871 14.2010982,6.84074999 14.5750675,6.81389478 Z M16.2784114,7.38235598 C16.6023832,7.35891589 16.8843009,7.60200989 16.9079757,7.9250486 C16.9311833,8.24824255 16.6874257,8.52921327 16.363454,8.55249813 C16.0388592,8.57609346 15.7570972,8.33315469 15.7337339,8.01058168 C15.710059,7.6867668 15.9539724,7.40641701 16.2784114,7.38235598 Z M17.5917431,8.18568387 C17.8689881,8.16596935 18.1100979,8.3728942 18.1301904,8.64951841 C18.1501271,8.92552169 17.9418818,9.16535581 17.6649482,9.18569126 C17.3877032,9.20571625 17.1465934,8.99832571 17.1269682,8.72216719 C17.1065642,8.44600868 17.3148095,8.20632979 17.5917431,8.18568387 Z M18.5485501,9.10108958 C18.7840526,9.08494541 18.9887156,9.26035807 19.0055372,9.49475906 C19.022203,9.72900481 18.8457319,9.93313547 18.6106966,9.95021104 C18.3759728,9.96728661 18.1713099,9.79063209 18.154021,9.5562311 C18.1370436,9.32214058 18.3138263,9.11847562 18.5485501,9.10108958 Z"/><filter id="miota-d" width="115.9%" height="116.7%" x="-8%" y="-6%" filterUnits="objectBoundingBox"><feOffset dy=".5" in="SourceAlpha" result="shadowOffsetOuter1"/><feGaussianBlur in="shadowOffsetOuter1" result="shadowBlurOuter1" stdDeviation=".5"/><feColorMatrix in="shadowBlurOuter1" values="0 0 0 0 0 0 0 0 0 0 0 0 0 0 0 0 0 0 0.204257246 0"/></filter></defs><g fill="none" fill-rule="evenodd"><use fill="#000" filter="url(#miota-a)" xlink:href="#miota-b"/><use fill="#242424" xlink:href="#miota-b"/><use fill="url(#miota-c)" style="mix-blend-mode:soft-light" xlink:href="#miota-b"/><circle cx="16" cy="15" r="14.5" stroke="#000" stroke-opacity=".097"/><g fill-rule="nonzero"><use fill="#000" filter="url(#miota-d)" xlink:href="#miota-e"/><use fill="#FFF" fill-rule="evenodd" xlink:href="#miota-e"/></g></g></svg>

<svg xmlns="http://www.w3.org/2000/svg" xmlns:xlink="http://www.w3.org/1999/xlink" width="32" height="32" viewBox="0 0 32 32"><defs><filter id="a" width="111.7%" height="111.7%" x="-5.8%" y="-4.2%" filterUnits="objectBoundingBox"><feOffset dy=".5" in="SourceAlpha" result="shadowOffsetOuter1"/><feGaussianBlur in="shadowOffsetOuter1" result="shadowBlurOuter1" stdDeviation=".5"/><feComposite in="shadowBlurOuter1" in2="SourceAlpha" operator="out" result="shadowBlurOuter1"/><feColorMatrix in="shadowBlurOuter1" values="0 0 0 0 0 0 0 0 0 0 0 0 0 0 0 0 0 0 0.199473505 0"/></filter><filter id="d" width="115.9%" height="116.7%" x="-8%" y="-6%" filterUnits="objectBoundingBox"><feOffset dy=".5" in="SourceAlpha" result="shadowOffsetOuter1"/><feGaussianBlur in="shadowOffsetOuter1" result="shadowBlurOuter1" stdDeviation=".5"/><feColorMatrix in="shadowBlurOuter1" values="0 0 0 0 0 0 0 0 0 0 0 0 0 0 0 0 0 0 0.204257246 0"/></filter><linearGradient id="c" x1="50%" x2="50%" y1="0%" y2="100%"><stop offset="0%" stop-color="#FFF" stop-opacity=".5"/><stop offset="100%" stop-opacity=".5"/></linearGradient><circle id="b" cx="16" cy="15" r="15"/><path id="e" d="M22.257 5.77c0 .701-.57 1.27-1.274 1.27a1.272 1.272 0 01-1.274-1.27c0-.702.57-1.27 1.274-1.27.704 0 1.274.568 1.274 1.27zm-.918 4.424c-.596 0-1.08-.482-1.08-1.076 0-.594.484-1.075 1.08-1.075.596 0 1.079.481 1.079 1.075s-.483 1.076-1.08 1.076zm-.335 2.653a.91.91 0 01-.912-.91.91.91 0 01.912-.909.91.91 0 01.912.91.91.91 0 01-.912.909zm-.054 1.372a.779.779 0 01-1.56 0 .779.779 0 011.56 0zm-1.234 1.724c0 .37-.3.667-.669.667a.668.668 0 11.67-.667zm-1.35 1.223a.574.574 0 11-1.148 0 .574.574 0 011.148 0zm6.874-7.409a1.084 1.084 0 01-2.11-.491 1.083 1.083 0 012.11.491zm-.518 2.803a.917.917 0 01-1.786-.417.916.916 0 011.786.417zm-.964 2.237a.775.775 0 01-1.51-.352.776.776 0 011.51.352zM22.516 16.5a.663.663 0 01-1.29-.3.661.661 0 01.795-.493.66.66 0 01.495.793zm-1.357 1.189a.569.569 0 01-1.108-.26.569.569 0 011.108.26zm-1.355.751a.49.49 0 01-.952-.222.49.49 0 01.952.222zm7.104-4.856a.923.923 0 01-1.232.427.917.917 0 01-.428-1.229.923.923 0 011.231-.427.92.92 0 01.429 1.229zm-.961 2.215a.785.785 0 01-1.413-.681.788.788 0 011.048-.364.78.78 0 01.365 1.045zm-1.208 1.68a.68.68 0 01-.906.314.674.674 0 01-.314-.902.678.678 0 011.22.589zm-1.346 1.188a.59.59 0 01-.785.272.587.587 0 11.512-1.056.587.587 0 01.273.784zm-1.355.732a.503.503 0 01-.905-.437.504.504 0 01.905.437zm-1.273.369a.428.428 0 01-.57.198.425.425 0 11.372-.766.425.425 0 01.198.568zm1.036 4.856a1.267 1.267 0 01-.468-1.734 1.277 1.277 0 011.74-.466c.61.35.82 1.127.469 1.734a1.276 1.276 0 01-1.74.466zm-2.99-1.532a1.072 1.072 0 01-.396-1.468 1.081 1.081 0 011.473-.395c.516.296.693.954.396 1.468a1.08 1.08 0 01-1.473.395zm-2.202-1.84a.908.908 0 01-.335-1.243.914.914 0 011.246-.333.907.907 0 01.335 1.24.913.913 0 01-1.246.336zm-1.501-1.974a.777.777 0 11.779-1.346c.372.214.5.689.285 1.06a.78.78 0 01-1.064.286zm-.883-1.926a.666.666 0 01-.246-.911.671.671 0 01.915-.245c.32.184.43.592.246.91a.67.67 0 01-.915.246zm-.389-1.777a.572.572 0 01-.21-.783.576.576 0 01.784-.21.573.573 0 11-.574.993zm3.75 9.926a1.081 1.081 0 01-1.083-1.08 1.08 1.08 0 011.083-1.079c.598 0 1.083.483 1.083 1.08 0 .596-.485 1.079-1.083 1.079zm-2.918-2.138a.912.912 0 01-.043-1.292.92.92 0 011.297-.042c.37.345.388.923.042 1.292a.92.92 0 01-1.296.042zm-1.465-1.948a.772.772 0 01-.035-1.093.777.777 0 011.096-.036.77.77 0 01.036 1.093.778.778 0 01-1.097.036zm-.859-1.924a.658.658 0 01-.03-.933.664.664 0 01.936-.031.66.66 0 01.031.934.664.664 0 01-.937.03zm-.356-1.764a.566.566 0 01-.026-.801.57.57 0 01.805-.027c.23.214.24.573.026.802a.57.57 0 01-.805.026zm.024-1.546a.485.485 0 01-.023-.688.49.49 0 01.691-.022.489.489 0 01-.668.71zm.675 8.56a.918.918 0 01.244-1.277.924.924 0 011.282.243.916.916 0 01-.244 1.276.925.925 0 01-1.282-.242zm-1.446-1.936a.78.78 0 01.207-1.087.787.787 0 011.09.206.78.78 0 01-.207 1.087.786.786 0 01-1.09-.206zm-.858-1.883a.674.674 0 01.179-.938.68.68 0 01.942.178.674.674 0 01-.18.94.68.68 0 01-.941-.18zm-.36-1.754a.586.586 0 01.155-.815.59.59 0 01.818.155.584.584 0 01-.156.815.59.59 0 01-.817-.155zm.04-1.536a.5.5 0 01.132-.696.504.504 0 01.699.132.503.503 0 01-.831.564zm.314-1.283a.427.427 0 11.706-.48.427.427 0 01-.706.48zm-4.74-1.542a1.276 1.276 0 011.74.466 1.268 1.268 0 01-.467 1.734c-.61.35-1.388.141-1.739-.465a1.268 1.268 0 01.466-1.735zm2.83-1.81a1.08 1.08 0 011.474.393c.297.515.12 1.172-.396 1.469a1.082 1.082 0 01-1.473-.394 1.073 1.073 0 01.395-1.469zm2.701-.977a.915.915 0 011.246.333.91.91 0 01-.334 1.243.915.915 0 01-1.246-.334.908.908 0 01.334-1.242zm2.467-.306a.78.78 0 011.064.285.775.775 0 01-.285 1.06.78.78 0 01-1.066-.285.775.775 0 01.287-1.06zm2.114.204a.67.67 0 01.914.245.67.67 0 01-1.16.667.666.666 0 01.246-.912zm1.738.554a.577.577 0 01.785.21.571.571 0 01-.21.783.573.573 0 11-.575-.993zM7.614 10.24a1.084 1.084 0 011.35.722 1.084 1.084 0 01-2.073.624 1.077 1.077 0 01.723-1.346zm2.694-.953a.915.915 0 01.53 1.75.914.914 0 11-.53-1.75zM12.734 9a.772.772 0 11.447 1.48.772.772 0 11-.447-1.48zm2.1.223a.66.66 0 01.382 1.265.663.663 0 01-.825-.442.66.66 0 01.444-.823zm1.71.577a.568.568 0 01.328 1.086.566.566 0 11-.328-1.086zm1.33.795a.487.487 0 11.283.932.486.486 0 11-.283-.932zm-7.77-3.707a.92.92 0 01.988.85.922.922 0 01-1.84.134.92.92 0 01.853-.984zm2.407-.278a.783.783 0 01.113 1.56.783.783 0 11-.113-1.56zm2.064.204a.677.677 0 01.098 1.348.676.676 0 01-.098-1.348zm1.703.568a.587.587 0 01.085 1.17.587.587 0 11-.085-1.17zm1.314.804zm.957.915z"/></defs><g fill="none" fill-rule="evenodd"><use fill="#000" filter="url(#a)" xlink:href="#b"/><use fill="#242424" xlink:href="#b"/><use fill="url(#c)" style="mix-blend-mode:soft-light" xlink:href="#b"/><circle cx="16" cy="15" r="14.5" stroke="#000" stroke-opacity=".097"/><g fill-rule="nonzero"><use fill="#000" filter="url(#d)" xlink:href="#e"/><use fill="#FFF" fill-rule="evenodd" xlink:href="#e"/></g></g></svg>
